X: 185
T: A Fig For A Kiss
R: slip jig
M: 9/8
K: Edorian
G2B E2B BAG|F2A D2A AFD|G2B E2B BAG|B/c/dB AGF E2F|
G2B E2B BAG|F2A D2A AFD|G2B E2B BAG|B/c/dB AGF E3||
g2e g2e edB|f3 dfa afd|g2e g2e edB|AB/c/d efd e2f|
g2e g2e edB|f3 dfa afd|gfe agf gfe|dcB AGF E3||

